X:1
T:Greenland Whale Fisheries
M:4/4
L:1/8
K:G
 z6 GG| G2 D2 G2 AB| A2 A2 G2 AB| c3 cB-A G2| A6 Bc| d2B-A G2A-B|c-BA-G E4|\
 G3 A B2c-B| A2B-A G2G-E| D4 G3 A| B2c-B A2 A2| G4 z4|
